src/components/Icon/assets/browser-chrome.svg

<svg width="24" height="24" viewBox="0 0 24 24" fill="none" xmlns="http://www.w3.org/2000/svg">
<path fill-rule="evenodd" clip-rule="evenodd" d="M11.9998 6.64776C9.5528 6.64776 7.5058 8.30876 6.8708 10.5558L4.1438 5.83276C5.9768 3.50376 8.8138 1.99976 11.9998 1.99976C15.5438 1.99976 18.6568 3.85876 20.4328 6.64776H12.0568L12.0378 6.65176C12.0313 6.65176 12.025 6.65076 12.0188 6.64976L12.0188 6.64975C12.0125 6.64876 12.0063 6.64776 11.9998 6.64776ZM12 15.721C9.949 15.721 8.28 14.051 8.28 12C8.28 9.94803 9.949 8.28003 12 8.28003C14.052 8.28003 15.721 9.94803 15.721 12C15.721 14.051 14.052 15.721 12 15.721ZM21.2746 8.28033H15.8356C16.7716 9.24433 17.3536 10.5533 17.3536 12.0003C17.3536 12.9503 17.0836 13.8313 16.6466 14.6053C16.64 14.6217 16.6358 14.6386 16.6316 14.6555C16.6256 14.6797 16.6196 14.7039 16.6066 14.7263L12.4196 21.9783C17.7376 21.7573 22.0006 17.3733 22.0006 12.0003C22.0006 10.6843 21.7386 9.43133 21.2746 8.28033ZM12.0002 17.353C12.4542 17.353 12.8882 17.278 13.3092 17.172L10.5862 21.888C5.7412 21.197 2.0002 17.033 2.0002 12C2.0002 10.328 2.4172 8.75398 3.1452 7.36798L7.3362 14.627C7.34736 14.6454 7.36226 14.6601 7.37724 14.6748C7.38911 14.6865 7.40103 14.6983 7.4112 14.712C8.3442 16.284 10.0412 17.353 12.0002 17.353Z" fill="#65676A"/>
</svg>

<svg xmlns="http://www.w3.org/2000/svg" width="24" height="24" viewBox="0 0 24 24">
    <path fill="#65676A" fill-rule="evenodd" d="M21.275 8.28C21.739 9.431 22 10.684 22 12c0 5.373-4.263 9.757-9.581 9.978l4.187-7.252c.022-.038.024-.08.04-.12.437-.775.707-1.656.707-2.606 0-1.447-.582-2.756-1.518-3.72zm-18.13-.912l4.191 7.259c.02.033.052.054.075.085.933 1.572 2.63 2.641 4.59 2.641.453 0 .887-.075 1.308-.181l-2.723 4.716C5.741 21.197 2 17.033 2 12c0-1.672.417-3.246 1.145-4.632zM12 8.28c2.052 0 3.721 1.668 3.721 3.72 0 2.051-1.669 3.721-3.721 3.721-2.051 0-3.72-1.67-3.72-3.72 0-2.053 1.669-3.72 3.72-3.72zM12 2c3.544 0 6.657 1.859 8.433 4.648h-8.376l-.02.004L12 6.648c-2.447 0-4.494 1.66-5.13 3.908L4.145 5.833C5.977 3.503 8.814 2 12 2z"/>
</svg>
